X:60
T:Jigg, The
M:6/4
L:1/4
Q:3/4=85
S:D.Wright, Extraordinary Collection, London 1713
N:Fnatural is what Wright has in bar 6, note 4
Z:Pete Stewart, 2004 <www.hornpipemusic.co.uk>
K:A
a | g>fgae=g | f3/2d/4e/4fecB/A/ | G3d2d | cAfdBb | af=g=fB^d | e3E2 ||
c | d>effdf | fdacd/c/B/A/ | B3E>FG | AFcdBe | f/g/afbeg | a3A2 |]

